X:1
T:Title
%%score ( 1 2 ) ( 3 4 )
L:1/8
Q:1/4=80
M:4/4
K:A
V:1 treble nm="Strings 1, Soprano"
V:2 treble 
V:3 bass nm="Strings 1, Bass"
V:4 bass 
V:1
 z4 z2 [CE]>[CE] | [CE]2 [A,C]>[B,D] [CE]2 [Ec]>[EB] | [FA][^EG] [FA]>[DF] [C=E]2 [CE]2 | %3
w: 1.~Far~ a|way~ in~ a~ land~ that~ is~|dark * er~ than~ night,~ With~|
 [B,E]2 [G,B,]>[A,C] [B,D]2 [DF]>[CE] | [A,C]6 [CE]>[CE] | [Ec]2 [Ec]>[DB] [CA]2 [CA]>[CE] | %6
w: nev er~ a~ star~ in~ the~|sky,~ In~ the~|isles~ of~ the~ sea~ for~ a~|
 [DF]2 [DF]>[DF] [Fd]2 [Ec]>[DB] | [CA]2 [CE]>[EA] [EB]2 [EA]>[EG] | [EA]6 [CE]>[CE] | %9
w: Sav ior~ they~ wait�~ For~ the~|touch~ of~ His~ hand~ they~ *|sigh.~ * *|
 [Ec]2 z2 z2 [DB]>[DE] | A6 z2 | [Ec]2 z2 z2 [Ec]>[EB] | c6 .c2 | [Ee]2 [Ed]>[Ec] [Ec]2 [DB]>[CA] | %14
w: |||||
 .F2 z2 z4 | [Ed]2 [Ec]>[EB] [Ec]2 [DB]2 | [CA]6 z2 |] %17
w: |||
V:2
 x8 | x8 | x8 | x8 | x8 | x8 | x8 | x8 | x8 | x8 | C2 D2 C2 [CE]>[CE] | x8 | E2 CF E2 E-[Ed] | x8 | %14
 D-[DG] [DA]2 [CE]2 E>E | x8 | x8 |] %17
V:3
 z4 z2 [A,,A,]>[A,,A,] | [A,,A,]2 [A,,E,]>[A,,E,] [A,,A,]2 [A,,A,]>[C,A,] | %2
 [D,A,]2 [D,A,]>[D,A,] [A,,A,]2 [A,,A,]2 | [E,G,]2 E,>E, [E,G,]2 [E,G,]>[E,G,] | %4
 [A,,A,]6 [A,,A,]>[A,,A,] | [A,,A,]2 [A,,A,]>[A,,A,] [A,,A,]2 [A,,A,]>[A,,A,] | %6
 [D,A,]2 [D,A,]>[D,A,] [D,A,]2 [D,A,]>[D,A,] | [E,A,]2 [E,A,]>[E,C] [E,D]2 [E,C]>[E,B,] | %8
 [A,,C]6 z2 | z2 [A,,A,]>[C,A,] [E,A,]2 [E,G,]>[E,G,] | [A,,A,]2 [A,,F,]2 [A,,E,]2 z2 | %11
 z2 [E,G,]>[G,B,] [E,G,]2 [E,A,]>[E,G,] | [A,,A,]2 [A,,A,]2 [A,,A,]2 A,B, | %13
 [A,C]2 [A,B,]>A, A,2 [A,,A,]>[A,,A,] | A,2 z2 z4 | [E,B,]2 [E,A,]>[E,G,] [E,A,]2 [E,G,]2 | %16
 [A,,A,]6 z2 |] %17
V:4
 x8 | x8 | x8 | x8 | x8 | x8 | x8 | x8 | x8 | x8 | x8 | x8 | x8 | x8 | %14
 D,E, [F,A,]2 A,2 [C,A,]>[C,A,] | x8 | x8 |] %17

